icons/virus_patient_fill.svg

<svg width="48" height="48" viewBox="0 0 48 48" fill="none" xmlns="http://www.w3.org/2000/svg">
<path fill-rule="evenodd" clip-rule="evenodd" d="M24 11C24 14.8675 20.8675 18 17 18C13.1325 18 10 14.8675 10 11C10 7.1325 13.1325 4 17 4C20.8675 4 24 7.1325 24 11ZM4 25.4C4 21.144 12.6613 19 17 19C19.6958 19 24.0602 19.8277 26.9791 21.4754C23.3942 23.3521 20.7933 26.8524 20.1529 31H4V25.4ZM30 23C30 22.4477 30.4477 22 31 22H35C35.5523 22 36 22.4477 36 23C36 23.5523 35.5523 24 35 24H34V26.0709C35.1859 26.2405 36.2759 26.7074 37.1922 27.3936L38.5858 26L38.2929 25.7071C37.9024 25.3166 37.9024 24.6834 38.2929 24.2929C38.6834 23.9024 39.3166 23.9024 39.7071 24.2929L41.7071 26.2929C42.0976 26.6834 42.0976 27.3166 41.7071 27.7071C41.3166 28.0976 40.6834 28.0976 40.2929 27.7071L40 27.4142L38.6064 28.8078C39.2926 29.7241 39.7595 30.8141 39.9291 32H42V31C42 30.4477 42.4477 30 43 30C43.5523 30 44 30.4477 44 31V35C44 35.5523 43.5523 36 43 36C42.4477 36 42 35.5523 42 35V34H39.9291C39.795 34.9374 39.4752 35.8149 39.0082 36.594L41 38.5858L41.2929 38.2929C41.6834 37.9024 42.3166 37.9024 42.7071 38.2929C43.0976 38.6834 43.0976 39.3166 42.7071 39.7071L40.7071 41.7071C40.3166 42.0976 39.6834 42.0976 39.2929 41.7071C38.9024 41.3166 38.9024 40.6834 39.2929 40.2929L39.5858 40L37.7383 38.1525C36.7233 39.0865 35.4315 39.7244 34 39.9291V42H35C35.5523 42 36 42.4477 36 43C36 43.5523 35.5523 44 35 44H31C30.4477 44 30 43.5523 30 43C30 42.4477 30.4477 42 31 42H32V39.9291C30.8141 39.7595 29.7241 39.2926 28.8078 38.6064L27.4142 40L27.7071 40.2929C28.0976 40.6834 28.0976 41.3166 27.7071 41.7071C27.3166 42.0976 26.6834 42.0976 26.2929 41.7071L24.2929 39.7071C23.9024 39.3166 23.9024 38.6834 24.2929 38.2929C24.6834 37.9024 25.3166 37.9024 25.7071 38.2929L26 38.5858L27.3936 37.1922C26.7074 36.2759 26.2405 35.1859 26.0709 34H24V35C24 35.5523 23.5523 36 23 36C22.4477 36 22 35.5523 22 35V31C22 30.4477 22.4477 30 23 30C23.5523 30 24 30.4477 24 31V32H26.0709C26.2405 30.8141 26.7074 29.7241 27.3936 28.8078L26 27.4142L25.7071 27.7071C25.3166 28.0976 24.6834 28.0976 24.2929 27.7071C23.9024 27.3166 23.9024 26.6834 24.2929 26.2929L26.2929 24.2929C26.6834 23.9024 27.3166 23.9024 27.7071 24.2929C28.0976 24.6834 28.0976 25.3166 27.7071 25.7071L27.4142 26L28.8078 27.3936C29.7241 26.7074 30.8141 26.2405 32 26.0709V24H31C30.4477 24 30 23.5523 30 23Z" fill="black"/>
</svg>

<svg
  xmlns="http://www.w3.org/2000/svg"
  width="24"
  height="24"
  viewBox="0 0 24 24"
  fill="none"
  stroke="currentColor"
  stroke-width="2"
  stroke-linecap="round"
  stroke-linejoin="round"
>
  <path
    fill-rule="evenodd"
    d="M24 11c0 3.867-3.133 7-7 7s-7-3.133-7-7 3.133-7 7-7 7 3.133 7 7M4 25.4c0-4.256 8.661-6.4 13-6.4 2.696 0 7.06.828 9.98 2.475A13.01 13.01 0 0 0 20.152 31H4zM30 23a1 1 0 0 1 1-1h4a1 1 0 1 1 0 2h-1v2.07a6.97 6.97 0 0 1 3.192 1.324L38.586 26l-.293-.293a1 1 0 0 1 1.414-1.414l2 2a1 1 0 0 1-1.414 1.414L40 27.414l-1.394 1.394A6.97 6.97 0 0 1 39.93 32H42v-1a1 1 0 1 1 2 0v4a1 1 0 1 1-2 0v-1h-2.07a7 7 0 0 1-.922 2.594L41 38.586l.293-.293a1 1 0 0 1 1.414 1.414l-2 2a1 1 0 0 1-1.414-1.414l.293-.293-1.848-1.847A6.98 6.98 0 0 1 34 39.929V42h1a1 1 0 1 1 0 2h-4a1 1 0 1 1 0-2h1v-2.07a6.97 6.97 0 0 1-3.192-1.324L27.414 40l.293.293a1 1 0 0 1-1.414 1.414l-2-2a1 1 0 0 1 1.414-1.414l.293.293 1.394-1.394A6.97 6.97 0 0 1 26.07 34H24v1a1 1 0 1 1-2 0v-4a1 1 0 1 1 2 0v1h2.07a6.97 6.97 0 0 1 1.324-3.192L26 27.414l-.293.293a1 1 0 0 1-1.414-1.414l2-2a1 1 0 0 1 1.414 1.414l-.293.293 1.394 1.394A6.97 6.97 0 0 1 32 26.07V24h-1a1 1 0 0 1-1-1"
    clip-rule="evenodd"
  />
</svg>
